Numix-GalliumOS/22/categories/applications-cardgames.svg

<?xml version="1.0" encoding="UTF-8" standalone="no"?>
<svg
   xmlns:dc="http://purl.org/dc/elements/1.1/"
   xmlns:cc="http://creativecommons.org/ns#"
   xmlns:rdf="http://www.w3.org/1999/02/22-rdf-syntax-ns#"
   xmlns:svg="http://www.w3.org/2000/svg"
   xmlns="http://www.w3.org/2000/svg"
   xmlns:sodipodi="http://sodipodi.sourceforge.net/DTD/sodipodi-0.dtd"
   xmlns:inkscape="http://www.inkscape.org/namespaces/inkscape"
   width="22"
   height="22"
   viewBox="0 0 22 22"
   id="svg2"
   version="1.1"
   inkscape:version="0.91 r"
   sodipodi:docname="applications-cardgames.svg">
  <metadata
     id="metadata14">
    <rdf:RDF>
      <cc:Work
         rdf:about="">
        <dc:format>image/svg+xml</dc:format>
        <dc:type
           rdf:resource="http://purl.org/dc/dcmitype/StillImage" />
      </cc:Work>
    </rdf:RDF>
  </metadata>
  <defs
     id="defs12" />
  <sodipodi:namedview
     pagecolor="#ffffff"
     bordercolor="#666666"
     borderopacity="1"
     objecttolerance="10"
     gridtolerance="10"
     guidetolerance="10"
     inkscape:pageopacity="0"
     inkscape:pageshadow="2"
     inkscape:window-width="1920"
     inkscape:window-height="1056"
     id="namedview10"
     showgrid="true"
     inkscape:zoom="30.341309"
     inkscape:cx="11.492122"
     inkscape:cy="8.3084713"
     inkscape:window-x="0"
     inkscape:window-y="24"
     inkscape:window-maximized="1"
     inkscape:current-layer="svg2">
    <inkscape:grid
       type="xygrid"
       id="grid4142" />
  </sodipodi:namedview>
  <path
     style="fill:#f9b081"
     d="M 3.6210938 3 C 3.2816279 3 3 3.2808579 3 3.6191406 L 3 16.384766 C 3 16.723047 3.2816278 17 3.6210938 17 L 11.378906 17 C 11.718373 17 12 16.723047 12 16.384766 L 12 3.6191406 C 12 3.2808579 11.718373 3 11.378906 3 L 3.6210938 3 z M 6.0625 7.5 A 1.4375 1.4375 0 0 1 7.5 8.9375 A 1.4375 1.4375 0 0 1 8.9375 7.5 A 1.4375 1.4375 0 0 1 10.375 8.9375 A 1.4375 1.4375 0 0 1 9.953125 9.9550781 L 7.5 12.5 L 5.046875 9.9550781 L 5.046875 9.953125 A 1.4375 1.4375 0 0 1 4.625 8.9375 A 1.4375 1.4375 0 0 1 6.0625 7.5 z "
     id="path6" />
  <path
     style="fill:#f9b081"
     inkscape:connector-curvature="0"
     id="path8"
     d="M 12.568382,4.2355047 C 12.238036,4.1446905 11.892145,4.3392974 11.806601,4.6652689 L 8.5227408,16.994984 c -0.089718,0.325944 0.1136307,0.669198 0.4398375,0.75592 l 7.4739237,2.0149 c 0.330351,0.09079 0.672096,-0.107884 0.75764,-0.433856 L 20.482128,7.0022513 C 20.56767,6.6762797 20.368497,6.3330526 20.038166,6.2463171 Z m 2.77278,4.6252367 1.090631,3.6571156 -2.772955,2.621402 -1.09069,-3.656897 z"
     sodipodi:nodetypes="cccccccccccccc" />
</svg>

<svg xmlns="http://www.w3.org/2000/svg" viewBox="0 0 22 22">
 <path d="m 3.621 3 c -0.339 0 -0.621 0.281 -0.621 0.619 l 0 12.766 c 0 0.338 0.282 0.615 0.621 0.615 l 7.758 0 c 0.339 0 0.621 -0.277 0.621 -0.615 l 0 -12.766 c 0 -0.338 -0.282 -0.619 -0.621 -0.619 l -7.758 0 z m 2.441 4.5 a 1.438 1.438 0 0 1 1.438 1.438 a 1.438 1.438 0 0 1 1.438 -1.438 a 1.438 1.438 0 0 1 1.438 1.438 a 1.438 1.438 0 0 1 -0.422 1.018 l -2.453 2.545 l -2.453 -2.545 l 0 -0.002 a 1.438 1.438 0 0 1 -0.422 -1.016 a 1.438 1.438 0 0 1 1.438 -1.438 z" style="fill:#f9b081"/>
 <path d="m 12.568 4.236 c -0.33 -0.091 -0.676 0.104 -0.762 0.43 l -3.284 12.33 c -0.09 0.326 0.114 0.669 0.44 0.756 l 7.474 2.01 c 0.33 0.091 0.672 -0.108 0.758 -0.434 l 3.288 -12.33 c 0.086 -0.326 -0.114 -0.669 -0.444 -0.756 m -4.697 2.614 1.091 3.657 -2.773 2.621 -1.091 -3.657 z" style="fill:#f9b081"/>
</svg>
